X: 7
T: Confitemini Domino
N: Derived from Mou2032-Confitemini_Domino.krn
C: Mouton
%%abc-version 2.0
%%abcx-abcm2ps-target-version 5.9.1 (29 Sep 2008)
%%abc-creator hum2abc beta
%%abcx-conversion-date 2019/02/17 07:22:03
%%abc-edited-by Jesse Rodin
%%abc-edited-by Jesse Rodin 10/14/12
%%abcx-initial-encoding-date 2012/10/14/
%%humdrum-veritas 583142636
%%humdrum-veritas-data 819592998
%%linebreak <none>
%%barnumbers 0
L: 1/4
M: 2/1
Q: 1/2=120
V: 1 clef=treble
V: 2 clef=treble-8
V: 3 clef=treble-8
V: 4 clef=treble-8
V: 5 clef=treble-8
V: 6 clef=bass
K: C
[V:1] z8 | 
[V:2] z8 | 
[V:3] z8 | 
[V:4] z8 | 
[V:5] E8 | 
[V:6] z8 | 
[V:1] z8 | 
[V:2] z8 | 
[V:3] z8 | 
[V:4] z8 | 
[V:5] E4A4- | 
[V:6] z8 | 
[V:1] z8 | 
[V:2] z8 | 
[V:3] z8 | 
[V:4] z8 | 
[V:5] A2G2G4 | 
[V:6] z8 | 
[V:1] E8 | 
[V:2] z8 | 
[V:3] z8 | 
[V:4] z8 | 
[V:5] A6B2 | 
[V:6] z8 | 
[V:1] E4A4- | 
[V:2] z8 | 
[V:3] z8 | 
[V:4] z8 | 
[V:5] c6A2 | 
[V:6] z8 | 
[V:1] A2G2G4 | 
[V:2] z8 | 
[V:3] z8 | 
[V:4] z8 | 
[V:5] c2c2B4 | 
[V:6] z8 | 
[V:1] A6B2 | 
[V:2] z8 | 
[V:3] z8 | 
[V:4] z8 | 
[V:5] A4z2d2 | 
[V:6] z8 | 
[V:1] c6A2 | 
[V:2] A8 | 
[V:3] z8 | 
[V:4] z8 | 
[V:5] c2A2c3d | 
[V:6] z8 | 
[V:1] c2c2B4 | 
[V:2] A4d4- | 
[V:3] z8 | 
[V:4] z8 | 
[V:5] e4z2G2 | 
[V:6] z8 | 
[V:1] A4z2G2 | 
[V:2] d2c2c4 | 
[V:3] z8 | 
[V:4] z8 | 
[V:5] FDF2E4 | 
[V:6] z8 | 
[V:1] F2D2F2G2 | 
[V:2] d6e2 | 
[V:3] z8 | 
[V:4] z8 | 
[V:5] D4z2G2 | 
[V:6] z8 | 
[V:1] A6B2 | 
[V:2] f6d2 | 
[V:3] z8 | 
[V:4] z8 | 
[V:5] F2D2F3G | 
[V:6] z8 | 
[V:1] c2d4c2 | 
[V:2] f2f2e4 | 
[V:3] z8 | 
[V:4] z8 | 
[V:5] A8 | 
[V:6] z8 | 
[V:1] B4A4- | 
[V:2] d4z2d2 | 
[V:3] z8 | 
[V:4] z8 | 
[V:5] z2G2F2D2 | 
[V:6] z8 | 
[V:1] A2GFE4 | 
[V:2] c2A2c3d | 
[V:3] z8 | 
[V:4] z8 | 
[V:5] FEFGABc2- | 
[V:6] A,,8 | 
[V:1] A6G2 | 
[V:2] e4f4 | 
[V:3] z8 | 
[V:4] z8 | 
[V:5] cBAGF3G | 
[V:6] A,,4D,4- | 
[V:1] F2EDE4 | 
[V:2] d2g4fe | 
[V:3] z8 | 
[V:4] z8 | 
[V:5] ABc3BA2 | 
[V:6] D,2C,2C,4 | 
[V:1] D4z2G2 | 
[V:2] f6ed | 
[V:3] z8 | 
[V:4] z8 | 
[V:5] B4A4- | 
[V:6] D,6E,2 | 
[V:1] A3Bc4 | 
[V:2] c4z2f2- | 
[V:3] z8 | 
[V:4] z8 | 
[V:5] A8 | 
[V:6] F,6E,2 | 
[V:1] B2A4G2- | 
[V:2] fdd3^c^cB | 
[V:3] z8 | 
[V:4] z8 | 
[V:5] d4G4 | 
[V:6] D,2F,2E,4 | 
[V:1] G2^FEF4 | 
[V:2] d6c2 | 
[V:3] z8 | 
[V:4] z8 | 
[V:5] A8 | 
[V:6] D,8 | 
[V:1] G4A4 | 
[V:2] B4A2f2- | 
[V:3] d8- | 
[V:4] z8 | 
[V:5] G4F2A2- | 
[V:6] z4D,4- | 
[V:1] F8 | 
[V:2] fedcd4 | 
[V:3] d8 | 
[V:4] A8- | 
[V:5] AGFEF4 | 
[V:6] D,4D,4 | 
[V:1] c6c2 | 
[V:2] e8 | 
[V:3] c8- | 
[V:4] A8 | 
[V:5] z4E4- | 
[V:6] A,,6A,,2 | 
[V:1] c4c4 | 
[V:2] e6f2 | 
[V:3] c8 | 
[V:4] G8- | 
[V:5] E2E2E4 | 
[V:6] C,4C,4 | 
[V:1] B6B2 | 
[V:2] g4d4 | 
[V:3] d8- | 
[V:4] G8 | 
[V:5] D4G4 | 
[V:6] G,,4G,,4 | 
[V:1] A4d4 | 
[V:2] f6g2 | 
[V:3] d8 | 
[V:4] A8- | 
[V:5] F4D4 | 
[V:6] D,8 | 
[V:1] d2d2c4 | 
[V:2] a8 | 
[V:3] f8- | 
[V:4] A8 | 
[V:5] z4A4 | 
[V:6] D,4F,4- | 
[V:1] A4c4- | 
[V:2] z4a4 | 
[V:3] f8 | 
[V:4] c8- | 
[V:5] A4F4 | 
[V:6] F,4F,4 | 
[V:1] c2BAG4- | 
[V:2] g4e4 | 
[V:3] e8- | 
[V:4] c8 | 
[V:5] G8 | 
[V:6] C,8 | 
[V:1] G4B4- | 
[V:2] g8- | 
[V:3] e8 | 
[V:4] B8- | 
[V:5] G4E4 | 
[V:6] E,6F,2 | 
[V:1] B2c2d4- | 
[V:2] g4g4 | 
[V:3] d8- | 
[V:4] B8 | 
[V:5] z8 | 
[V:6] G,8 | 
[V:1] d2cBA4 | 
[V:2] f6e2 | 
[V:3] d8 | 
[V:4] A8- | 
[V:5] D8 | 
[V:6] z4D,4 | 
[V:1] z4F4- | 
[V:2] d2cBA4 | 
[V:3] z4d4- | 
[V:4] A8 | 
[V:5] F8 | 
[V:6] D,6C,2 | 
[V:1] F2G2A4 | 
[V:2] B4c4 | 
[V:3] d4c4 | 
[V:4] z4A4- | 
[V:5] D4E4 | 
[V:6] B,,4A,,4 | 
[V:1] D4G4- | 
[V:2] d4B4 | 
[V:3] f4e4- | 
[V:4] A4G4 | 
[V:5] F4G4- | 
[V:6] D,4E,4 | 
[V:1] G2A2B2c2 | 
[V:2] c4g4- | 
[V:3] e4d4- | 
[V:4] c4B4- | 
[V:5] G2C2D4 | 
[V:6] C,4G,,4- | 
[V:1] d2B2c4 | 
[V:2] g4e4 | 
[V:3] d4c4 | 
[V:4] B4A4- | 
[V:5] G4z2C2 | 
[V:6] G,,4A,,4 | 
[V:1] z4B4 | 
[V:2] d4g4 | 
[V:3] d8 | 
[V:4] A4G4 | 
[V:5] F4D4 | 
[V:6] B,,8 | 
[V:1] c6BA | 
[V:2] c3de2c2 | 
[V:3] z8 | 
[V:4] A8 | 
[V:5] E8 | 
[V:6] A,,8 | 
[V:1] c4B4- | 
[V:2] e2f2g4- | 
[V:3] z8 | 
[V:4] z8 | 
[V:5] z4e4- | 
[V:6] z8 | 
[V:1] B2AGB2c2 | 
[V:2] g4g4 | 
[V:3] z8 | 
[V:4] z8 | 
[V:5] e4e4 | 
[V:6] z8 | 
[V:1] d4B2c2- | 
[V:2] z8 | 
[V:3] z8 | 
[V:4] z8 | 
[V:5] d4e4 | 
[V:6] z8 | 
[V:1] c2BAG2c2- | 
[V:2] z4e4 | 
[V:3] z8 | 
[V:4] z8 | 
[V:5] c6A2 | 
[V:6] z8 | 
[V:1] cBA4^G2 | 
[V:2] f6ed | 
[V:3] z8 | 
[V:4] z8 | 
[V:5] d4B4 | 
[V:6] z8 | 
[V:1] A8 | 
[V:2] f4e4- | 
[V:3] z8 | 
[V:4] z8 | 
[V:5] A4c4- | 
[V:6] z4A,4- | 
[V:1] z4A4 | 
[V:2] e2dce2f2 | 
[V:3] z8 | 
[V:4] z8 | 
[V:5] c2BAc4 | 
[V:6] A,4A,4 | 
[V:1] B4c4- | 
[V:2] g4e2f2- | 
[V:3] z8 | 
[V:4] z8 | 
[V:5] B4A4- | 
[V:6] G,4A,4 | 
[V:1] c2B2A2GF | 
[V:2] fed2c2f2- | 
[V:3] z8 | 
[V:4] z8 | 
[V:5] A2B2c2d2- | 
[V:6] F,6D,2 | 
[V:1] G4A4 | 
[V:2] fee4d2 | 
[V:3] z8 | 
[V:4] z8 | 
[V:5] dBB4A2 | 
[V:6] G,4F,4 | 
[V:1] G8- | 
[V:2] e8- | 
[V:3] z8 | 
[V:4] z8 | 
[V:5] B4z4 | 
[V:6] E,4C,4- | 
[V:1] G8 | 
[V:2] e8- | 
[V:3] z8 | 
[V:4] z8 | 
[V:5] c6B2 | 
[V:6] C,2D,2E,2F,G, | 
[V:1] z8 | 
[V:2] e8 | 
[V:3] z8 | 
[V:4] z8 | 
[V:5] A2c2B2G2 | 
[V:6] A,4E,4 | 
[V:1] c6B2 | 
[V:2] z2c2e4 | 
[V:3] z8 | 
[V:4] z8 | 
[V:5] A6G2 | 
[V:6] z8 | 
[V:1] A2c2B2G2- | 
[V:2] f4g4 | 
[V:3] z8 | 
[V:4] z8 | 
[V:5] A4E4 | 
[V:6] z8 | 
[V:1] G2E3FG2 | 
[V:2] e2g3fed | 
[V:3] z8 | 
[V:4] z8 | 
[V:5] c6B2 | 
[V:6] z2C,2E,4 | 
[V:1] A4D4 | 
[V:2] c4z4 | 
[V:3] z8 | 
[V:4] z8 | 
[V:5] A2c2B2G2- | 
[V:6] F,4G,4 | 
[V:1] z4G4- | 
[V:2] z8 | 
[V:3] z8 | 
[V:4] z8 | 
[V:5] GABcd2e2- | 
[V:6] E,2G,3F,E,D, | 
[V:1] G2F2E2G2 | 
[V:2] z8 | 
[V:3] z8 | 
[V:4] z8 | 
[V:5] e2d4^c2 | 
[V:6] C,2D,2E,4 | 
[V:1] F2D3EFG | 
[V:2] z4d4- | 
[V:3] z8 | 
[V:4] z8 | 
[V:5] d4D4 | 
[V:6] D,4z4 | 
[V:1] A4G2B2- | 
[V:2] d2c2B2d2- | 
[V:3] z8 | 
[V:4] z8 | 
[V:5] F4G4 | 
[V:6] z4G,4- | 
[V:1] B2A4^G2 | 
[V:2] dcA2B4 | 
[V:3] z8 | 
[V:4] z8 | 
[V:5] D4z4 | 
[V:6] G,2F,2E,2G,2 | 
[V:1] A4F4- | 
[V:2] A8 | 
[V:3] z8 | 
[V:4] z8 | 
[V:5] z4d4- | 
[V:6] F,2D,3E,F,G, | 
[V:1] F2E2D2F2- | 
[V:2] z4z2a2- | 
[V:3] z8 | 
[V:4] z8 | 
[V:5] d2c2B2A2 | 
[V:6] A,4D,4 | 
[V:1] F2E2A4- | 
[V:2] a2g2f4 | 
[V:3] z4d4- | 
[V:4] z8 | 
[V:5] c4F3G | 
[V:6] C,4D,4 | 
[V:1] A2B2c4 | 
[V:2] e8 | 
[V:3] d4c4 | 
[V:4] z4A4- | 
[V:5] A6G2 | 
[V:6] A,,8 | 
[V:1] A4B4 | 
[V:2] f4g4 | 
[V:3] d6e2 | 
[V:4] A4G4 | 
[V:5] F3ED2G2- | 
[V:6] D,4G,,4 | 
[V:1] A8 | 
[V:2] d8 | 
[V:3] f4d4 | 
[V:4] A6B2 | 
[V:5] G2FEF4 | 
[V:6] D,8 | 
[V:1] z8 | 
[V:2] z2g4f2 | 
[V:3] e4d4- | 
[V:4] c4A4 | 
[V:5] G4z2D2 | 
[V:6] C,4D,4 | 
[V:1] D4A4 | 
[V:2] g4e4- | 
[V:3] d4c4 | 
[V:4] B4A4- | 
[V:5] G4C2E2- | 
[V:6] G,,4A,,4 | 
[V:1] B6G2 | 
[V:2] e2dcB2e2- | 
[V:3] B8 | 
[V:4] A4G4 | 
[V:5] E2F2G2AB | 
[V:6] E,8 | 
[V:1] A2c4BA | 
[V:2] e2dcd4 | 
[V:3] A8 | 
[V:4] F8 | 
[V:5] c4A4 | 
[V:6] z4z2D,2 | 
[V:1] G4z4 | 
[V:2] e6d2 | 
[V:3] z8 | 
[V:4] E8 | 
[V:5] B4z4 | 
[V:6] G,4G,2G,2 | 
[V:1] G4c4 | 
[V:2] c2B2e4 | 
[V:3] z8 | 
[V:4] z8 | 
[V:5] z4E4 | 
[V:6] E,4C,4 | 
[V:1] B3AG4 | 
[V:2] d3cB4 | 
[V:3] z4d4 | 
[V:4] z8 | 
[V:5] G6G2 | 
[V:6] z4G,,4 | 
[V:1] A8 | 
[V:2] A4d4 | 
[V:3] f4f4 | 
[V:4] z4A4 | 
[V:5] F4D4 | 
[V:6] D,6D,2 | 
[V:1] z2G2G2G2 | 
[V:2] G4z2G2 | 
[V:3] e4c4 | 
[V:4] c4c4 | 
[V:5] E4E4 | 
[V:6] C,4C,4 | 
[V:1] B4d4- | 
[V:2] G2G2B4 | 
[V:3] d8 | 
[V:4] B4G4 | 
[V:5] G8 | 
[V:6] G,,4G,,4 | 
[V:1] d2d2d4 | 
[V:2] z2d4d2 | 
[V:3] f8 | 
[V:4] A8 | 
[V:5] F8 | 
[V:6] D,8 | 
[V:1] G6A2 | 
[V:2] e4c4 | 
[V:3] e8 | 
[V:4] c8 | 
[V:5] z4C4 | 
[V:6] C,8 | 
[V:1] B4G4 | 
[V:2] d4z4 | 
[V:3] z4d4 | 
[V:4] B8 | 
[V:5] G6G2 | 
[V:6] z4G,,4 | 
[V:1] A8 | 
[V:2] d4d2d2 | 
[V:3] f4f4 | 
[V:4] z4A4 | 
[V:5] F4D4 | 
[V:6] D,6D,2 | 
[V:1] z2G2G2G2 | 
[V:2] g4z2G2 | 
[V:3] e4c4 | 
[V:4] c4c4 | 
[V:5] E4E4 | 
[V:6] C,4C,4 | 
[V:1] B4d4- | 
[V:2] G2G2B4 | 
[V:3] d8 | 
[V:4] B4G4 | 
[V:5] G8 | 
[V:6] G,,4G,,4 | 
[V:1] d2d2d4 | 
[V:2] z2d4d2 | 
[V:3] f8 | 
[V:4] A8 | 
[V:5] F8 | 
[V:6] D,8 | 
[V:1] G6A2 | 
[V:2] e4c4 | 
[V:3] e8 | 
[V:4] c8 | 
[V:5] z4C4 | 
[V:6] C,8 | 
[V:1] B3cd2B2 | 
[V:2] d8 | 
[V:3] z4g4 | 
[V:4] B8 | 
[V:5] G4D4 | 
[V:6] z8 | 
[V:1] c4A4- | 
[V:2] z8 | 
[V:3] f2e2f4 | 
[V:4] z4d4 | 
[V:5] F4D4 | 
[V:6] z8 | 
[V:1] A2G2A4 | 
[V:2] z8 | 
[V:3] e2d2e4 | 
[V:4] c2B2c4 | 
[V:5] A2B2A4 | 
[V:6] z8 | 
[V:1] F6D2 | 
[V:2] z4z2f2- | 
[V:3] d4z4 | 
[V:4] B2A2B4 | 
[V:5] z8 | 
[V:6] D,8 | 
[V:1] A4B4 | 
[V:2] f2e2d2cB | 
[V:3] z8 | 
[V:4] A4z4 | 
[V:5] z8 | 
[V:6] F,4G,4 | 
[V:1] A4z4 | 
[V:2] c4z4 | 
[V:3] z8 | 
[V:4] z8 | 
[V:5] z2c4B2 | 
[V:6] A,6D,2 | 
[V:1] z8 | 
[V:2] z2c4B2 | 
[V:3] z8 | 
[V:4] z8 | 
[V:5] A2GFG2F2- | 
[V:6] F,4E,2D,2- | 
[V:1] z8 | 
[V:2] A4^G4 | 
[V:3] z8 | 
[V:4] z8 | 
[V:5] FEDCD4 | 
[V:6] D,C,B,,A,,B,,4 | 
[V:1] z4A4 | 
[V:2] A4e3d | 
[V:3] z8 | 
[V:4] z8 | 
[V:5] z2c4B2 | 
[V:6] A,,8 | 
[V:1] c4B2A2- | 
[V:2] e2f2d2f2- | 
[V:3] z8 | 
[V:4] z8 | 
[V:5] A2GFG2F2 | 
[V:6] z8 | 
[V:1] A2G2F4 | 
[V:2] f2e2d2cB | 
[V:3] z8 | 
[V:4] z8 | 
[V:5] c4d4 | 
[V:6] z8 | 
[V:1] E8 | 
[V:2] c2A2c3d | 
[V:3] z8 | 
[V:4] z8 | 
[V:5] z4A4 | 
[V:6] z8 | 
[V:1] E4D4 | 
[V:2] efg3ff2- | 
[V:3] z4d4- | 
[V:4] z8 | 
[V:5] c4B2A2- | 
[V:6] z4D,4- | 
[V:1] A4z2A2 | 
[V:2] fedcd4 | 
[V:3] d4d4 | 
[V:4] z4A4- | 
[V:5] AGFEF4 | 
[V:6] D,4D,4 | 
[V:1] c4c2c2 | 
[V:2] e4z2c2 | 
[V:3] c8 | 
[V:4] A4A4 | 
[V:5] z4E4- | 
[V:6] A,,4A,,4 | 
[V:1] c6c2 | 
[V:2] g4g2g2 | 
[V:3] e8 | 
[V:4] G8 | 
[V:5] E4E4 | 
[V:6] C,6C,2 | 
[V:1] d4B2d2- | 
[V:2] g6g2 | 
[V:3] d8 | 
[V:4] B8 | 
[V:5] G4G4 | 
[V:6] G,,8 | 
[V:1] d2cBA4 | 
[V:2] f2edf3g | 
[V:3] z4d4- | 
[V:4] A8 | 
[V:5] D6E2 | 
[V:6] z4D,4- | 
[V:1] z4A4 | 
[V:2] a4f4 | 
[V:3] d4d4 | 
[V:4] z4A4- | 
[V:5] F8 | 
[V:6] D,4D,4 | 
[V:1] c4c2c2 | 
[V:2] e4z2c2 | 
[V:3] c8 | 
[V:4] A4A4 | 
[V:5] z4E4- | 
[V:6] A,,4A,,4 | 
[V:1] c6c2 | 
[V:2] g6g2 | 
[V:3] e8 | 
[V:4] G8 | 
[V:5] E4E4 | 
[V:6] C,6C,2 | 
[V:1] d4B2d2- | 
[V:2] g6g2 | 
[V:3] d8 | 
[V:4] B8 | 
[V:5] G4G4 | 
[V:6] G,,8 | 
[V:1] d2cBA4 | 
[V:2] f8 | 
[V:3] z4d4- | 
[V:4] A8 | 
[V:5] D2E2F2G2 | 
[V:6] z4D,4- | 
[V:1] z2F4G2 | 
[V:2] f4z2c2- | 
[V:3] d4c4 | 
[V:4] z4A4- | 
[V:5] A8 | 
[V:6] D,4F,4 | 
[V:1] A2F2G4- | 
[V:2] c2d2e4- | 
[V:3] A4B4 | 
[V:4] A4G4 | 
[V:5] z4E4 | 
[V:6] F,4E,4 | 
[V:1] G2E2A4- | 
[V:2] e4d4 | 
[V:3] c4A4 | 
[V:4] E4F4 | 
[V:5] G4D4 | 
[V:6] C,4F,4 | 
[V:1] A2^G^FG4 | 
[V:2] e4e4 | 
[V:3] B8 | 
[V:4] G4E4 | 
[V:5] G4G4 | 
[V:6] E,8 | 
[V:1] A8- | 
[V:2] z4A4 | 
[V:3] A8- | 
[V:4] F8 | 
[V:5] D8 | 
[V:6] z8 | 
[V:1] A8- | 
[V:2] c6d2 | 
[V:3] A8- | 
[V:4] E8- | 
[V:5] A6B2 | 
[V:6] A,,8- | 
[V:1] A8- | 
[V:2] e8- | 
[V:3] A8- | 
[V:4] E8- | 
[V:5] c8- | 
[V:6] A,,4A,,4 | 
[V:1] A8 |]  
[V:2] e8 |]  
[V:3] A8 |]  
[V:4] E8 |]  
[V:5] c8 |]  
[V:6] A,,8 |]  



